X: 9
T: Mori Shej
O: Rom
D: Czsokolom - May I Kiss Your Hand
M: C
L: 1/8
K: Am
|: "Am"AA-AA-A3B | AG-GA-A2 G2 | "C"ee-ee-e3d | ed-de-e4 :|
|: "G"D4-D4 | E^FFG-G4 | "Am"AB-BA-A2 G2 | ED-DC-C4 |
"G"B,C D2 D2 D2 | "E7"E2 DC E2 DC | "Am"A,2 A,2-A,4 | A,4-A,4 :|


